src/assets/icons/settingsIcon.svg

<svg width="24" height="24" viewBox="0 0 24 24" fill="none" xmlns="http://www.w3.org/2000/svg">
<path d="M15.415 3.83878C14.7095 0.0537398 9.2905 0.0537401 8.58499 3.83878C8.41886 4.73006 7.49808 5.26091 6.64603 4.96004C3.01257 3.67704 0.312178 8.37772 3.23044 10.8784C3.91803 11.4676 3.91803 12.5324 3.23044 13.1216C0.312178 15.6223 3.01257 20.323 6.64603 19.04C7.49808 18.7391 8.41886 19.2699 8.58499 20.1612C9.2905 23.9463 14.7095 23.9463 15.415 20.1612C15.5811 19.2699 16.5019 18.7391 17.354 19.04C20.9874 20.323 23.6878 15.6223 20.7696 13.1216C20.082 12.5324 20.082 11.4676 20.7696 10.8784C23.6878 8.37772 20.9874 3.67704 17.354 4.96004C16.5019 5.26091 15.5811 4.73006 15.415 3.83878Z" stroke="#212135" stroke-width="2" stroke-linejoin="round"/>
<circle r="3" transform="matrix(-1 0 0 1 12 12)" stroke="#212135" stroke-width="2"/>
</svg>

<svg width="24" height="24" fill="none" xmlns="http://www.w3.org/2000/svg"><path d="M15.415 3.839c-.705-3.785-6.124-3.785-6.83 0A1.474 1.474 0 0 1 6.646 4.96C3.013 3.677.312 8.378 3.23 10.878c.688.59.688 1.654 0 2.244-2.918 2.5-.217 7.201 3.416 5.918.852-.3 1.773.23 1.939 1.121.705 3.785 6.124 3.785 6.83 0a1.474 1.474 0 0 1 1.939-1.121c3.633 1.283 6.334-3.418 3.416-5.918a1.478 1.478 0 0 1 0-2.244c2.918-2.5.217-7.201-3.416-5.918-.852.3-1.773-.23-1.939-1.121Z" stroke="#212135" stroke-width="2" stroke-linejoin="round"/><circle r="3" transform="matrix(-1 0 0 1 12 12)" stroke="#212135" stroke-width="2"/></svg>
